X:1
T:Slow Poke
T:Slow Poke
C:Pee Wee King
Z:All Rights Reserved
L:1/8
M:4/4
K:G
V:1 treble nm="Piano" snm="Pno."
%%MIDI program 0
V:1
|:"G" B,2 DD EEGG | BBFF EE"G#dim"B,B, |"Am7" C4"D7" D4 |"Am7""D7" z8 | C2 DD"Am7" EE"D7"FF | %5
w: You keep me wait- in' till it's|get- tin' ag- ra- va- tin' you're a|slow poke;||I wait 'n wor- ry but you|
 ccFF"Am" EE"D7"CC |"G" B,4 D4 |"Am7""D7" z8 |"G7" G6"Dm7" A2 |"G7" (3B2 A2 B2"Dm7" A2"G7" G2 | %10
w: nev- er seem to hur- ry, you're a|slow poke.||Time means|noth- ing to you, I|
"Cmaj7" B6"C" E2 | G8 |"A9" B6 E2 |"Em7""A7" G8 |"D7" FF A2"Am7" EE G2 |"D7" DD F2"Am7""D7" C4 | %16
w: wait and|then|late a-|gain,|Eight o- clock, nine o- clock,|quar- ter to ten.|
"G" B,2 DD EEGG | BBFF EE"G#dim"B,B, |"Am7" C4"D7" D4 |"Am7""D7" z8 | C2 DD"Am7" EE"D7"FF | %21
w: Why should I lin- ger ev- 'ry|time you snap your fin- ger lit- tle|slow poke,||Why don't you has- ten when you|
 ccFF"Am" EE"D7"CC |"G" B,4 D4 |"G9" A6 z2 |"C" z2 BA B2 A2 |"Cm" d d2 c B2"Cm7" _B2 | %26
w: see the time's a- wast- in' lit- tle|slow poke|dear,|Why should I keep|try- in' to change you,|
"Bm7" A2 AG A2 GF- |"E9" F6"E7" E2 |"Am" CCEE AA"E7"BB |"Am" c4"D7" F4 |1"G" G8- || %31
w: it's not the thing to do,|_ I|guess I'll have to learn to be a|slow poke|too!|
"A7" G6"D7b9" z2 :|2"G" G8- ||"Am7" G6"G6" z2 |] %34
w: _|too!|_|

